src/pos-icons/cloud-alert.svg

<svg height="24" viewBox="0 0 24 24" width="24" xmlns="http://www.w3.org/2000/svg"><path d="m19 20h-13c-3.29 0-6-2.71-6-6 0-3.1 2.34-5.64 5.35-5.97 1.25-2.39 3.76-4.03 6.65-4.03 3.64 0 6.67 2.59 7.35 6.03 2.6.19 4.65 2.33 4.65 4.97 0 2.74-2.26 5-5 5m-8-5v2h2v-2zm0-2h2v-5h-2z"/></svg>

<?xml version="1.0" encoding="UTF-8"?><!DOCTYPE svg PUBLIC "-//W3C//DTD SVG 1.1//EN" "http://www.w3.org/Graphics/SVG/1.1/DTD/svg11.dtd"><svg xmlns="http://www.w3.org/2000/svg" xmlns:xlink="http://www.w3.org/1999/xlink" version="1.1" id="mdi-cloud-alert" width="24" height="24" viewBox="0 0 24 24"><path d="M19,20H6C2.71,20 0,17.29 0,14C0,10.9 2.34,8.36 5.35,8.03C6.6,5.64 9.11,4 12,4C15.64,4 18.67,6.59 19.35,10.03C21.95,10.22 24,12.36 24,15C24,17.74 21.74,20 19,20M11,15V17H13V15H11M11,13H13V8H11V13Z" /></svg>
